dist/svg/static/system-follow-large.svg

<svg xmlns="http://www.w3.org/2000/svg" width="48" height="48" viewBox="0 0 48 48"><g fill="none" stroke="currentColor" stroke-miterlimit="10"><path d="M21.372 25.615l-5.4 5.4m15.306-9.636l-.682.682-2.519-.31-1.423 1.423-.909 3.738-1.538 1.538-5.657-5.657 1.538-1.538 3.738-.909 1.423-1.423-.31-2.519.682-.682 5.657 5.657z"/><circle cx="23.5" cy="23.5" r="22"/></g></svg>

<?xml version="1.0" encoding="UTF-8" standalone="no"?>
<svg width="48px" height="48px" viewBox="0 0 48 48" version="1.1" xmlns="http://www.w3.org/2000/svg" xmlns:xlink="http://www.w3.org/1999/xlink">
    <!-- Generator: sketchtool 46.2 (44496) - http://www.bohemiancoding.com/sketch -->
    <title>system-follow-large</title>
    <desc>Created with sketchtool.</desc>
    <defs></defs>
    <g id="icons-published" stroke="none" stroke-width="1" fill="none" fill-rule="evenodd">
        <g id="briefing" transform="translate(-288.000000, -1818.000000)"></g>
        <g id="system-follow-large" stroke="#000000">
            <path d="M21.4,25.6 L16,31 L21.4,25.6 Z M31.3,21.4 L30.6,22.1 L28.1,21.8 L26.7,23.2 L25.8,26.9 L24.3,28.4 L18.6,22.7 L20.1,21.2 L23.8,20.3 L25.2,18.9 L24.9,16.4 L25.6,15.7 L31.3,21.4 Z" id="Shape"></path>
            <circle id="Oval" cx="23.5" cy="23.5" r="22"></circle>
        </g>
    </g>
</svg>
